X: 1
T: The Priest
R: slide
M: 12/8
L: 1/8
K: Gmaj
g|edB d2 B d2 B B2 g| edB d2 B c2 A A2 g|
edB d2 B BAB g3|BAB g3 B2 G G2 :|
f|gag fgf g2 e e2 d|eaa aga b2 e e2 f|
gag fgf g2 e e2 d|BAB g3 B2 G G2:|


Tune 1765	Setting 5212

